X:1
T:St. Helena (Milgrove), SM
T:St. Helena (Milgrove), SM
T:Benjamin Milgrove, 1769
T:Public Domain Courtesy of the Cyber Hymnal™
C:Benjamin Milgrove, 1769
Z:Public Domain
Z:Courtesy of the Cyber Hymnal™
%%score ( 1 2 ) ( 3 4 )
L:1/8
Q:1/4=113
M:4/4
K:D
V:1 treble 
V:2 treble 
V:3 bass 
V:4 bass 
V:1
 [A,D]2 | [DF]2 D2 [DE]2 [CE]2 | D6 [EA]2 | [Ec]2 [EA]2 [FB]2 [EB]2 | [CA]6 [EG]2 | %5
 [DF]2 D2 [DB]2 [DA]2 | [DB]2 [Gc]2 [Fd]2 B2 | [FA]2 [EG]2 [DF]2 [CE]2 x | D6 |] %9
V:2
 x2 | x2 D2 x4 | D6 x2 | x8 | x8 | x2 D2 x4 | x6 (DE) | x9 | D6 |] %9
V:3
 [D,F,]2 | [D,A,]2 [F,A,]2 [G,B,]2 A,2 | [D,F,]6 [C,A,]2 | [A,,A,]2 [C,A,]2 [D,A,]2 [E,^G,]2 | %4
 [A,,A,]6 [C,A,]2 | [D,A,]2 [F,A,]2 G,2 [F,A,]2 | G,2 [E,G,]2 [D,A,]2 (B,C) | %7
 [F,,D]2 [G,,B,]2 A,3 z G, | [D,F,]6 |] %9
V:4
 x2 | x6 A,2 | x8 | x8 | x8 | x4 G,2 x2 | G,2 x2 G,,2 x2 | x4 A,,2 A,,2 x | x6 |] %9

